lib/brands/icons/google-currents.svg

<svg xmlns="http://www.w3.org/2000/svg" fill="none" aria-hidden="true" viewBox="0 0 48 48"><g id="google-currents-Icon"><g id="Group"><path id="Vector" fill="#174EA6" d="M22.3055 17.813L29.5075 33.8683L34.0184 23.9582L35.6351 26.7122L36.8373 30.1509L33.7166 36.9743C32.8588 38.8686 31.2843 40 29.5064 40C27.7463 40 26.1856 38.89 25.321 37.0287L25.2951 36.972L22.2151 30.1758L19.5115 24.0034L22.3055 17.813ZM16.7073 11.0913C18.2962 11.0913 19.6947 12.0735 20.4588 13.7217L20.4835 13.7757L22.3055 17.813L19.5115 24.0034L16.7073 17.7892L13.8765 24.0198L12.7887 27.5817L11.0899 30.1532L8.31738 23.9345L12.9311 13.7757C13.6895 12.095 15.1012 11.0913 16.7073 11.0913Z"/><path id="Vector_2" fill="#4285F4" d="M33.7334 11.0201C32.8789 9.12913 31.3146 8 29.5469 8C27.778 8 26.2126 9.12913 25.3593 11.0223L16.7082 30.2198L13.8995 23.9729L11.0908 30.1543L12.9309 34.2334C13.6893 35.9141 15.101 36.9178 16.7071 36.9178C18.3132 36.9178 19.7249 35.9141 20.4833 34.2334L29.5469 14.1204L36.8337 30.178L39.6819 23.9344L33.7334 11.0201Z"/></g></g></svg>

<svg xmlns="http://www.w3.org/2000/svg" fill="none" aria-hidden="true" viewBox="0 0 48 48"><path fill="#174EA6" d="m22.305 17.813 7.203 16.055 4.51-9.91 1.617 2.754 1.202 3.439-3.12 6.823C32.859 38.87 31.284 40 29.507 40c-1.76 0-3.321-1.11-4.186-2.971l-.026-.057-3.08-6.796-2.703-6.173 2.793-6.19Zm-5.598-6.722c1.59 0 2.988.982 3.752 2.63l.024.055 1.822 4.037-2.793 6.19-2.805-6.214-2.83 6.23-1.088 3.563-1.7 2.571-2.772-6.218 4.614-10.16c.759-1.68 2.17-2.684 3.776-2.684Z"/><path fill="#4285F4" d="M33.733 11.02C32.88 9.13 31.315 8 29.547 8c-1.769 0-3.334 1.13-4.188 3.022L16.71 30.22l-2.81-6.247-2.808 6.181 1.84 4.08c.758 1.68 2.17 2.684 3.776 2.684 1.606 0 3.018-1.004 3.776-2.685l9.064-20.113 7.287 16.058 2.848-6.244-5.949-12.914Z"/></svg>
